src/img/chr-hat.svg

<svg width="90" height="90" viewBox="0 0 90 90" fill="none" xmlns="http://www.w3.org/2000/svg">
<g clip-path="url(#clip0)">
<path d="M20.1327 31.5656C18.1399 30.1702 15.3927 30.6546 13.9972 32.6475L11.4704 36.2562C10.0747 38.2495 10.5594 40.9963 12.5522 42.3917L51.7337 69.8269C53.6566 65.62 55.0805 61.2023 55.976 56.6634L20.1327 31.5656Z" fill="#F7F9F2"/>
<path d="M55.8874 84.1905C53.9685 86.9309 50.1915 87.5969 47.451 85.6781C44.711 83.7595 44.0446 79.9822 45.9635 77.2417C47.8823 74.5013 51.6598 73.8356 54.3998 75.7542C57.1402 77.673 57.8062 81.4501 55.8874 84.1905Z" fill="#F7F9F2"/>
<path d="M65.6082 20.384C52.6536 11.3131 34.7983 14.4614 25.7273 27.4161L21.9371 32.8291L55.976 56.6634C55.0805 61.2023 53.6566 65.62 51.7337 69.8269L49.2347 74.8941C50.9989 74.3706 52.9055 74.6808 54.4125 75.736C55.49 76.4866 56.2898 77.5712 56.6885 78.8226L64.3294 70.5795C67.3307 67.3339 70.1074 63.8877 72.6403 60.2648C81.7112 47.3102 78.5632 29.4552 65.6082 20.384Z" fill="#EC665C"/>
<path d="M57.0617 69.0535C56.145 66.4362 55.4358 63.7503 54.9412 61.0215C54.11 64.0377 53.0373 66.9826 51.7337 69.827L49.2346 74.8942C50.9988 74.3707 52.9054 74.6809 54.4124 75.7361C55.49 76.4867 56.2897 77.5713 56.6884 78.8227L59.7902 75.4682C58.7454 73.3901 57.8336 71.2477 57.0617 69.0535Z" fill="#EC665C"/>
<path d="M51.8979 69.4582C53.733 65.3599 55.1015 61.0681 55.9759 56.6635L51.6169 53.6921C51.5174 55.2584 51.1578 56.7968 50.5531 58.2444C49.9326 59.7053 48.6312 60.7661 47.0756 61.0798C45.3221 61.3179 43.6362 60.2313 42.2261 59.2308L23.5422 46.1482C21.7815 45.0736 20.2548 43.6566 19.0512 41.9814C17.0912 38.8477 17.7993 34.4762 20.1326 31.5658C20.24 31.4125 18.2129 30.8131 17.9998 30.7715C17.2785 30.6709 16.5433 30.7758 15.8785 31.0745C14.4513 31.9999 13.2725 33.2615 12.4461 34.7482C11.4227 36.2099 10.363 37.9146 10.7201 39.6707C11.0772 41.4267 12.5521 42.3918 13.9234 43.352L51.7428 69.8335C51.7849 69.7152 51.8489 69.5854 51.8979 69.4582Z" fill="#B8B9B4"/>
<path d="M57.5242 45.4855L57.6237 44.2107L55.66 46.3046C53.6358 48.4087 50.3795 48.7211 47.9926 47.0399L34.7759 37.7855C31.739 35.6964 30.9613 31.5464 33.0354 28.4998C38.5023 20.7045 47.4858 16.1358 57.0055 16.3102C45.2787 12.976 32.7259 17.4332 25.7273 27.4161L21.937 32.8291L56.1024 56.752C56.9018 53.0451 57.3777 49.2753 57.5242 45.4855Z" fill="#EC665C"/>
<path d="M51.4336 85.7506C49.5471 84.431 48.5718 82.1561 48.9164 79.8798C49.2618 77.6033 50.8672 75.7194 53.0602 75.0176C50.1986 73.9356 46.9796 75.1565 45.5558 77.8641C44.1319 80.5717 44.9506 83.916 47.4636 85.6599C49.0142 86.7522 50.9894 87.0487 52.7924 86.4605C52.3098 86.2854 51.853 86.047 51.4336 85.7506Z" fill="#B8B9B4"/>
<path d="M77.8305 43.7316C77.7888 35.1385 73.8892 27.0182 67.2086 21.6123C66.8313 24.7632 67.7101 29.2105 69.8102 33.7192C72.0143 38.463 75.0476 42.1191 77.8305 43.7316Z" fill="#FAC269"/>
</g>
<defs>
<clipPath id="clip0">
<rect width="64" height="64" fill="white" transform="translate(36.7089) rotate(35)"/>
</clipPath>
</defs>
</svg>

<svg xmlns="http://www.w3.org/2000/svg" width="90" height="90" fill="none"  xmlns:v="https://vecta.io/nano"><g clip-path="url(#A)"><g fill="#f7f9f2"><path d="M20.133 31.566c-1.993-1.395-4.74-.911-6.135 1.082l-2.527 3.609c-1.396 1.993-.911 4.74 1.082 6.136l39.182 27.435c1.923-4.207 3.347-8.625 4.242-13.163L20.133 31.566zm35.754 52.625a6.06 6.06 0 0 1-8.436 1.488 6.06 6.06 0 0 1-1.487-8.436 6.06 6.06 0 0 1 8.436-1.487 6.06 6.06 0 0 1 1.488 8.436z"/></g><g fill="#ec665c"><path d="M65.608 20.384c-12.955-9.071-30.81-5.923-39.881 7.032l-3.79 5.413 34.039 23.834c-.895 4.539-2.319 8.957-4.242 13.163l-2.499 5.067c1.764-.523 3.671-.213 5.178.842a5.97 5.97 0 0 1 2.276 3.087l7.641-8.243c3.001-3.246 5.778-6.692 8.311-10.315 9.071-12.955 5.923-30.81-7.032-39.881z"/><path d="M57.062 69.054a52.77 52.77 0 0 1-2.12-8.032c-.831 3.016-1.904 5.961-3.208 8.805l-2.499 5.067c1.764-.523 3.671-.213 5.178.842a5.97 5.97 0 0 1 2.276 3.087l3.102-3.355a54.67 54.67 0 0 1-2.728-6.415z"/></g><path d="M51.898 69.458c1.835-4.098 3.204-8.39 4.078-12.795l-4.359-2.971c-.099 1.566-.459 3.105-1.064 4.552a4.81 4.81 0 0 1-3.477 2.835c-1.754.238-3.439-.849-4.849-1.849L23.542 46.148c-1.761-1.075-3.287-2.492-4.491-4.167-1.96-3.134-1.252-7.505 1.081-10.416.107-.153-1.92-.753-2.133-.794a3.87 3.87 0 0 0-2.121.303 10.4 10.4 0 0 0-3.432 3.674c-1.023 1.462-2.083 3.166-1.726 4.922s1.832 2.721 3.203 3.681l37.819 26.482c.042-.118.106-.248.155-.375z" fill="#b8b9b4"/><path d="M57.524 45.486l.099-1.275-1.964 2.094c-2.024 2.104-5.28 2.416-7.667.735l-13.217-9.254a6.7 6.7 0 0 1-1.74-9.286c5.467-7.795 14.45-12.364 23.97-12.19-11.727-3.334-24.28 1.123-31.278 11.106l-3.79 5.413 34.165 23.923c.799-3.707 1.275-7.477 1.422-11.266z" fill="#ec665c"/><path d="M51.434 85.751a6.06 6.06 0 0 1 1.627-10.733 6.06 6.06 0 0 0-5.597 10.642c1.551 1.092 3.526 1.389 5.329.801-.483-.175-.939-.413-1.359-.71z" fill="#b8b9b4"/><path d="M77.831 43.732c-.042-8.593-3.941-16.713-10.622-22.119-.377 3.151.501 7.598 2.602 12.107 2.204 4.744 5.237 8.4 8.02 10.012z" fill="#fac269"/></g><defs><clipPath id="A"><path fill="#fff" transform="matrix(.819152 .573576 -.573576 .819152 36.7089 0)" d="M0 0h64v64H0z"/></clipPath></defs></svg>
